X:7681
T:Ivy Leaf
M:4/4
L:1/8
R:Reel
K:D
|~A3e cAed|Aece dBGB|~A3e cAec|AGEF GABG|
|A~e3cee2|a~e3(3Bcd BG|~A3e cAec|BGEF GABG|
|eaag eA~A2|efge dG~G2|eaag eA~A2|BE~E2GABd|
eaag eA~A2|efged2BG|~A2(3Bcd egfa|gedB BA~A2|
